src/lib/packages/icons/src/assets/line/print-slash.svg

<svg width="24" height="24" viewBox="0 0 24 24" fill="none" xmlns="http://www.w3.org/2000/svg">
<path d="M20.7801 7.21999C21.4241 7.86399 21.75 8.79902 21.75 10V15.5C21.75 16.741 20.74 17.75 19.5 17.75H17.75V20C17.75 20.965 16.965 21.75 16 21.75H8.00002C7.54102 21.75 7.11695 21.5789 6.77395 21.2549C6.47295 20.9699 6.46114 20.4961 6.74514 20.1941C7.03014 19.8931 7.50393 19.8811 7.80593 20.1651C7.88493 20.2401 7.94902 20.25 8.00002 20.25H16C16.136 20.25 16.25 20.136 16.25 20V15.75H13C12.586 15.75 12.25 15.414 12.25 15C12.25 14.586 12.586 14.25 13 14.25H17C17.414 14.25 17.75 14.586 17.75 15V16.25H19.5C19.913 16.25 20.25 15.914 20.25 15.5V10C20.25 9.21102 20.071 8.63205 19.72 8.28005C19.427 7.98705 19.427 7.51202 19.72 7.21902C20.013 6.92602 20.4871 6.92699 20.7801 7.21999ZM3.53005 21.5301C3.38405 21.6761 3.19202 21.75 3.00002 21.75C2.80802 21.75 2.61599 21.6771 2.46999 21.5301C2.17699 21.2371 2.17699 20.762 2.46999 20.469L5.18996 17.749H4.501C3.261 17.749 2.251 16.74 2.251 15.499V9.99905C2.251 7.58105 3.583 6.24905 6.001 6.24905H6.251V4.00002C6.251 3.03502 7.036 2.25002 8.001 2.25002H15.001C15.2 2.25002 15.391 2.32899 15.531 2.46999L17.531 4.46999C17.672 4.61099 17.751 4.80202 17.751 5.00002V5.18899L20.471 2.46902C20.764 2.17602 21.239 2.17602 21.532 2.46902C21.825 2.76202 21.825 3.23705 21.532 3.53005L3.53005 21.5301ZM7.75002 6.25002H16.25V5.31106L14.689 3.75002H8.00002C7.86202 3.75002 7.75002 3.86202 7.75002 4.00002V6.25002ZM4.50002 16.25H6.25002V15C6.25002 14.586 6.58602 14.25 7.00002 14.25H8.68899L15.189 7.75002H6.00002C4.42302 7.75002 3.75002 8.42302 3.75002 10V15.5C3.75002 15.914 4.08702 16.25 4.50002 16.25Z" fill="currentColor"/>
</svg>

<svg xmlns="http://www.w3.org/2000/svg" width="24" height="24" fill="none"><path fill="currentColor" d="M20.78 7.22c.644.644.97 1.579.97 2.78v5.5c0 1.241-1.01 2.25-2.25 2.25h-1.75V20c0 .965-.785 1.75-1.75 1.75H8a1.76 1.76 0 0 1-1.226-.495.751.751 0 0 1 1.032-1.09c.079.075.143.085.194.085h8c.136 0 .25-.114.25-.25v-4.25H13a.75.75 0 0 1 0-1.5h4a.75.75 0 0 1 .75.75v1.25h1.75a.75.75 0 0 0 .75-.75V10c0-.789-.179-1.368-.53-1.72a.75.75 0 1 1 1.06-1.06ZM3.53 21.53a.748.748 0 0 1-1.06 0 .75.75 0 0 1 0-1.061l2.72-2.72h-.689a2.253 2.253 0 0 1-2.25-2.25v-5.5c0-2.418 1.332-3.75 3.75-3.75h.25V4c0-.965.785-1.75 1.75-1.75h7c.199 0 .39.079.53.22l2 2a.75.75 0 0 1 .22.53v.189l2.72-2.72a.75.75 0 1 1 1.061 1.061l-18.002 18ZM7.75 6.25h8.5v-.939L14.689 3.75H8a.25.25 0 0 0-.25.25v2.25Zm-3.25 10h1.75V15a.75.75 0 0 1 .75-.75h1.689l6.5-6.5H6c-1.577 0-2.25.673-2.25 2.25v5.5c0 .414.337.75.75.75Z"/></svg>
